img/arrow_down.svg

<svg width="17" height="17" viewBox="0 0 17 17" fill="none" xmlns="http://www.w3.org/2000/svg">
<path d="M3.47945 5.81393C3.65697 5.63642 3.93474 5.62028 4.13048 5.76551L4.18656 5.81393L8.49967 10.1268L12.8128 5.81393C12.9903 5.63642 13.2681 5.62028 13.4638 5.76551L13.5199 5.81393C13.6974 5.99144 13.7135 6.26921 13.5683 6.46495L13.5199 6.52103L8.85323 11.1877C8.67572 11.3652 8.39794 11.3813 8.2022 11.2361L8.14612 11.1877L3.47945 6.52103C3.28419 6.32577 3.28419 6.00919 3.47945 5.81393Z" fill="#222222" stroke="#222222" stroke-width="0.3"/>
</svg>

<svg width="17" height="17" viewBox="0 0 17 17" fill="none" xmlns="http://www.w3.org/2000/svg"><path d="M3.48 5.814a.5.5 0 0 1 .65-.048l.057.048L8.5 10.127l4.313-4.313a.5.5 0 0 1 .65-.048l.057.048a.5.5 0 0 1 .048.65l-.048.057-4.667 4.667a.5.5 0 0 1-.65.048l-.057-.048L3.48 6.52a.5.5 0 0 1 0-.707z" fill="#222" stroke="#222" stroke-width=".3"/></svg>
